X:1
T:Title
%%score { ( 1 3 ) | ( 2 4 ) }
L:1/8
M:6/4
K:Ab
V:1 treble nm="Grand Piano"
V:3 treble 
V:2 bass 
V:4 bass 
V:1
 z6 z4[Q:1/4=114] A2 | A2 G2 F2 A2 G2 F2 | .[CA]6 .[A,CE]6 | %3
 [A,CE]2 [B,DE]2 [A,CE]2 [G,DF]4 [G,DE]2 |[M:5/4] [CE]2- [CE]2- [CE]6 |[M:1/4] z2 | %6
[M:6/4] A2 G2 F2 A2 G2 F2 | .[CA]6 [A,CE]4 E2 | c2 B2 A2 z2 C2 [DB]2 | %9
[M:5/4] A2- [EA-]2 [DA-]2 [CA]4 |[M:1/4] c2 |[M:6/4] c2 c2 c2 z2 G2 _c2 | c12 | z6 .A6 | %14
[M:5/4] [CE]2- [CE]2- [CE]6 |[M:1/4] [Ec]2 |[M:6/4] [_Ge]4 [Ge]2 [Fd]4 [Fd]2 | [Ec]6 [=DB]4 [DF]2 | %18
 c2 B2 A2 z2 A,2 B2 |[M:5/4] [CA-]4 A6 |] %20
V:2
 z12 | [A,,E,]6 [A,,=D,]6 | z4 A2 A,,4 C2 | E,2 E,2 E,2 E,4 B,,2 |[M:5/4] z2 G,2 F,2 E,4 | %5
[M:1/4] A2 |[M:6/4] [A,,E,]6 [A,,=D,]6 | z4 A2 .A,,6 | %8
 [E,A,E]2 [E,G,D]2 [E,A,C]2 [B,D]2 A,2 [E,G,]2 |[M:5/4] z2 G,2 F,2 E,4 |[M:1/4][K:treble] [A,E]2 | %11
[M:6/4] [A,EA]2 [A,EG]2 [A,EF]2 .[A,=DA]4 [A,DF]2 | .[A,EA]6[K:bass] [A,C]4 [C,A,]2 | %13
 [D,A,]2 [D,G,]2 [D,F,]2 z2 G,2 [D,F,D]2 |[M:5/4] [A,,A,]2- [A,,A,]2- [A,,A,]6 |[M:1/4] [A,,A,]2 | %16
[M:6/4] [C,A,]4 [C,A,]2 [D,A,]4 [D,A,]2 | [F,=A,]6 [B,,B,]4 [B,,_A,]2 | %18
 [E,A,E]2 [E,G,D]2 [E,A,C]2 .[E,B,D]4 [E,G,D]2 |[M:5/4] z2 G,2 F,2 E,4 |] %20
V:3
 x12 | C6 _C6 | x12 | x12 |[M:5/4] A,2 z2 z2 z4 |[M:1/4] x2 |[M:6/4] C6 _C6 | x12 | z6 .E6 | %9
[M:5/4] [A,C]2 z2 z2 z4 |[M:1/4] x2 |[M:6/4] z6 ._c6 | z2 G2 F2 E4 [EA]2 | %13
 [FA]2 [EA]2 [DA]2 [A,F]2 E2 A2 |[M:5/4] x10 |[M:1/4] x2 |[M:6/4] x12 | x12 | z6 .E6 | %19
[M:5/4] A,2 z2 D2 C4 |] %20
V:4
 x12 | x12 | [A,,E,]6 z6 | x12 |[M:5/4] A,,2- A,,2- A,,6 |[M:1/4] x2 |[M:6/4] x12 | [A,,E,]6 z6 | %8
 z6 .E,6 |[M:5/4] A,,2- A,,2- A,,6 |[M:1/4][K:treble] x2 |[M:6/4] x12 | x6[K:bass] x6 | z6 .D,6 | %14
[M:5/4] x10 |[M:1/4] x2 |[M:6/4] x12 | x12 | x12 |[M:5/4] A,,2- A,,2- A,,6 |] %20

